icons/camera.svg

<?xml version="1.0" encoding="UTF-8" standalone="no"?>
<svg width="24px" height="24px" viewBox="0 0 24 24" version="1.1" xmlns="http://www.w3.org/2000/svg" xmlns:xlink="http://www.w3.org/1999/xlink">
    <!-- Generator: Sketch 40.1 (33804) - http://www.bohemiancoding.com/sketch -->
    <title>camera</title>
    <desc>Created with Sketch.</desc>
    <defs></defs>
    <g id="Page-1" stroke="none" stroke-width="1" fill="none" fill-rule="evenodd">
        <g id="camera" fill="#777777">
            <g id="Rectangle-741-+-Oval-222-+-Rectangle-906-Copy-14" transform="translate(2.000000, 4.000000)">
                <g id="Rectangle-741-+-Oval-222">
                    <path d="M5,2 L1.99079514,2 C0.898212381,2 0,2.89805351 0,4.00585866 L0,13.9941413 C0,15.1029399 0.891309342,16 1.99079514,16 L18.0092049,16 C19.1017876,16 20,15.1019465 20,13.9941413 L20,4.00585866 C20,2.89706013 19.1086907,2 18.0092049,2 L15,2 L14,0 L6,0 L5,2 Z M10,13 C12.209139,13 14,11.209139 14,9 C14,6.790861 12.209139,5 10,5 C7.790861,5 6,6.790861 6,9 C6,11.209139 7.790861,13 10,13 Z" id="Rectangle-741"></path>
                    <circle id="Oval-222" cx="10" cy="9" r="2"></circle>
                </g>
            </g>
        </g>
    </g>
</svg>

<svg xmlns="http://www.w3.org/2000/svg" viewBox="0 0 24 24">
  <g fill-rule="evenodd" transform="translate(2 4)">
    <path d="M5 2H1.99C.9 2 0 2.898 0 4.006v9.988C0 15.104.89 16 1.99 16h16.02c1.09 0 1.99-.898 1.99-2.006V4.006C20 2.896 19.11 2 18.01 2H15l-1-2H6L5 2zm5 11c2.21 0 4-1.79 4-4s-1.79-4-4-4-4 1.79-4 4 1.79 4 4 4z"/>
    <circle cx="10" cy="9" r="2"/>
  </g>
</svg>
